assets/leaft-invert-y.svg

<svg fill="none" height="340" viewBox="0 0 234 340" width="234" xmlns="http://www.w3.org/2000/svg"><path d="m39.483 320.22c-.596-.48-.1454-1.425.5959-1.279 13.8243 2.689 17.1242 18.65 53.0441 1.119 3.4887-1.701 3.6486-.669 2.6311-5.117-.3344-1.453-8.1551-26.82-4.0267-23.622 2.0933 1.628 3.2271 3.94 4.9134 6.091 2.1659 2.762 5.1462 4.87 7.2392 7.777 2.544 3.503 3.125 6.149 7.864 7.632 10.278 3.212 12.385 3.794 30.702-7.516 37.984-23.462 5.48-17.705-11.979-25.002-2.805-1.163-9.695-3.111-11.818-5.83-.363-.465-.058-1.163.538-1.192 29.495-1.322 32.562 11.906 45.122 7.341 4.913-1.788 12.094-8.678 10.582-14.391-1.846-7.007-8.649-12.414-9.565-19.959-.451-3.721.175-7.559-.48-11.222-.596-3.372-3.198-6.556-2.311-10.074 1.192-4.753 8.548 13.839 9.289 15.293 9.71 19.086 29.146 15.568 30.658-.116 1.133-11.673 1.511-23.099 3.067-34.598 3.518-26.02 16.019-22.764-5.19-57.623 14.391-35.105 22.721-79.8925 29.48-114.5913 1.73-8.8528 6.673-25.62802-.043-33.2742555-2.806-3.1980445-21.718 108.4865555-30.091 136.4545555-6.759 22.547-32.809 60.487-42.2 70.619-49.657 53.567-84.3262 64.949-122.5429 93.688-8.4312 4.725-24.6395 15.743-25.39542 22.59-1.52634 13.926 55.36982 17.299 29.91632-3.198z" fill="#231f20"/><path d="m212.163 152.105c2.936 7.297-2.864 10.277-5.306 16.383-2.456 6.149-1.541 15.35-5.16 21.005-3.155 4.942-12.836 7.457-17.575 11.498-3.692 3.155-7.283 6.571-12.313 7.501-2.994.553-9.884-2.195-9.463 2.428.044.407.349.756.756.785 5.379.421 14.231-3.387 12.749 5.698-1.018 6.251-8.01 9.057-10.888 14.275-5.364 9.711-2.486 27.925-25.09 28.666-6.149.204-15.162-.567-20.381-4.273-.349-.248-.843-.233-1.133.087-4.129 4.593 13.722 5.742 10.161 8.446-9.144 6.933-21.398 10.175-31.3267 16.353-7.6026 4.725-15.5105 23.724-25.5117 20.221-4.6662-1.629-7.2392-6.818-12.1962-7.123-.596-.029-1.0757.537-.8867 1.09.9594 2.762 7.1229 2.122 7.0502 6.585-.1163 7.021-21.5432 12.429-32.6346 10.873-2.9073-.407-8.7656-3.648-11.0188-.189-1.7734 2.719 7.9225 1.003 7.2974 3.227-.7414 2.675-6.556 2.646-8.9109 4.463-10.1611 7.821-.814 19.654-19.566193 18.869-.450634-.015-.81404511-.393-.81404511-.843-.26165789-24.858 30.55583811-39.54 49.07543811-49.149 23.7818-12.341 44.7872-29.553 66.9848-44.351 9.667-6.454 26.456-17.851 52.535-54.105 11.615-16.15 20.467-30.221 29.088-48.276.174-.363.581-.567.959-.465 2.399.538 10.568 2.995 13.519 10.321z" fill="#414042"/></svg>

<svg width="234" height="340" viewBox="0 0 234 340" fill="none" xmlns="http://www.w3.org/2000/svg">
<path d="M39.483 320.22C38.887 319.74 39.3376 318.795 40.0789 318.941C53.9032 321.63 57.2031 337.591 93.123 320.06C96.6117 318.359 96.7716 319.391 95.7541 314.943C95.4197 313.49 87.599 288.123 91.7274 291.321C93.8207 292.949 94.9545 295.261 96.6408 297.412C98.8067 300.174 101.787 302.282 103.88 305.189C106.424 308.692 107.005 311.338 111.744 312.821C122.022 316.033 124.129 316.615 142.446 305.305C180.43 281.843 147.926 287.6 130.467 280.303C127.662 279.14 120.772 277.192 118.649 274.473C118.286 274.008 118.591 273.31 119.187 273.281C148.682 271.959 151.749 285.187 164.309 280.622C169.222 278.834 176.403 271.944 174.891 266.231C173.045 259.224 166.242 253.817 165.326 246.272C164.875 242.551 165.501 238.713 164.846 235.05C164.25 231.678 161.648 228.494 162.535 224.976C163.727 220.223 171.083 238.815 171.824 240.269C181.534 259.355 200.97 255.837 202.482 240.153C203.615 228.48 203.993 217.054 205.549 205.555C209.067 179.535 221.568 182.791 200.359 147.932C214.75 112.827 223.08 68.0395 229.839 33.3407C231.569 24.4879 236.512 7.71268 229.796 0.0664445C226.99 -3.1316 208.078 108.553 199.705 136.521C192.946 159.068 166.896 197.008 157.505 207.14C107.848 260.707 73.1788 272.089 34.9621 300.828C26.5309 305.553 10.3226 316.571 9.56668 323.418C8.04034 337.344 64.9365 340.717 39.483 320.22Z" fill="#231F20"/>
<path d="M212.163 152.105C215.099 159.402 209.299 162.382 206.857 168.488C204.401 174.637 205.316 183.838 201.697 189.493C198.542 194.435 188.861 196.95 184.122 200.991C180.43 204.146 176.839 207.562 171.809 208.492C168.815 209.045 161.925 206.297 162.346 210.92C162.39 211.327 162.695 211.676 163.102 211.705C168.481 212.126 177.333 208.318 175.851 217.403C174.833 223.654 167.841 226.46 164.963 231.678C159.599 241.389 162.477 259.603 139.873 260.344C133.724 260.548 124.711 259.777 119.492 256.071C119.143 255.823 118.649 255.838 118.359 256.158C114.23 260.751 132.081 261.9 128.52 264.604C119.376 271.537 107.122 274.779 97.1933 280.957C89.5907 285.682 81.6828 304.681 71.6816 301.178C67.0154 299.549 64.4424 294.36 59.4854 294.055C58.8894 294.026 58.4097 294.592 58.5987 295.145C59.5581 297.907 65.7216 297.267 65.6489 301.73C65.5326 308.751 44.1057 314.159 33.0143 312.603C30.107 312.196 24.2487 308.955 21.9955 312.414C20.2221 315.133 29.918 313.417 29.2929 315.641C28.5515 318.316 22.7369 318.287 20.382 320.104C10.2209 327.925 19.568 339.758 0.815807 338.973C0.365173 338.958 0.00176189 338.58 0.00176189 338.13C-0.259896 313.272 30.5576 298.59 49.0772 288.981C72.859 276.64 93.8644 259.428 116.062 244.63C125.729 238.176 142.518 226.779 168.597 190.525C180.212 174.375 189.064 160.304 197.685 142.249C197.859 141.886 198.266 141.682 198.644 141.784C201.043 142.322 209.212 144.779 212.163 152.105Z" fill="#414042"/>
</svg>
